lite/images/sprite/horoscope-year-t/horoscope-year-t__career~after.svg

<?xml version="1.0" encoding="utf-8"?>
<!DOCTYPE svg PUBLIC "-//W3C//DTD SVG 1.1//EN" "http://www.w3.org/Graphics/SVG/1.1/DTD/svg11.dtd">
<svg version="1.1" baseProfile="full"
 xmlns="http://www.w3.org/2000/svg"
 xmlns:xlink="http://www.w3.org/1999/xlink"
 xmlns:ev="http://www.w3.org/2001/xml-events" 
  height="36px" 
  width="35px" 
>
<path fill="rgb( 100, 185, 235 )"
 d="M0.00400000000002,34.153 C0.00400000000002,35.177 0.83100000000002,35.994 1.83999999999998,35.994 C1.83999999999998,35.994 33.154,35.994 33.154,35.994 C34.165,35.994 34.993,35.177 34.993,34.153 C34.993,34.153 34.993,18.049 34.993,18.049 C34.993,18.049 0.00400000000002,18.049 0.00400000000002,18.049 C0.00400000000002,18.049 0.00400000000002,34.153 0.00400000000002,34.153 ZM14.899,20.817 C14.899,20.367 15.406,20.006 16.038,20.006 C16.038,20.006 19.888,20.006 19.888,20.006 C20.514,20.006 21.021,20.367 21.021,20.817 C21.021,20.817 21.021,23.135 21.021,23.135 C21.021,23.59 20.514,23.953 19.888,23.953 C19.888,23.953 16.038,23.953 16.038,23.953 C15.406,23.953 14.899,23.59 14.899,23.135 C14.899,23.135 14.899,20.817 14.899,20.817 ZM33.154,8.05899999999997 C33.154,8.05899999999997 26.166,8.05899999999997 26.166,8.05899999999997 C25.949,3.83699999999999 22.47,0.94200000000001 18.184,0.94200000000001 C18.184,0.94200000000001 17.455,0.94200000000001 17.455,0.94200000000001 C13.178,0.94200000000001 9.69900000000001,3.83699999999999 9.47899999999999,8.05899999999997 C9.47899999999999,8.05899999999997 1.83999999999998,8.05899999999997 1.83999999999998,8.05899999999997 C0.83100000000002,8.05899999999997 0.00400000000002,8.87900000000002 0.00400000000002,9.89499999999998 C0.00400000000002,9.89499999999998 0.00400000000002,16.974 0.00400000000002,16.974 C0.00400000000002,16.974 34.993,16.974 34.993,16.974 C34.993,16.974 34.993,9.89499999999998 34.993,9.89499999999998 C34.993,8.87900000000002 34.165,8.05899999999997 33.154,8.05899999999997 ZM11.778,8.05899999999997 C12,4.85000000000002 14.194,2.87599999999998 17.455,2.87199999999996 C17.455,2.87199999999996 18.184,2.87199999999996 18.184,2.87199999999996 C21.451,2.87599999999998 23.829,4.85000000000002 24.049,8.05899999999997 C24.049,8.05899999999997 11.778,8.05899999999997 11.778,8.05899999999997 Z "/></svg>

<?xml version="1.0" encoding="utf-8"?><svg baseProfile="full" xmlns="http://www.w3.org/2000/svg" height="36" width="35"><path fill="rgb( 100, 185, 235 )" d="M.004 34.153c0 1.024.827 1.84 1.836 1.84 0 0 31.314 0 31.314 0 1.01 0 1.84-.816 1.84-1.84 0 0 0-16.104 0-16.104s-34.99 0-34.99 0 0 16.102 0 16.102zM14.9 20.817c0-.45.506-.81 1.138-.81 0 0 3.85 0 3.85 0 .626 0 1.133.36 1.133.81 0 0 0 2.318 0 2.318 0 .455-.505.818-1.13.818 0 0-3.85 0-3.85 0-.633 0-1.14-.363-1.14-.818 0 0 0-2.318 0-2.318zM33.153 8.06s-6.988 0-6.988 0C25.95 3.836 22.47.94 18.185.94c0 0-.73 0-.73 0C13.18.942 9.7 3.837 9.48 8.06c0 0-7.64 0-7.64 0-1.01 0-1.836.82-1.836 1.835 0 0 0 7.08 0 7.08s34.99 0 34.99 0 0-7.08 0-7.08c0-1.016-.83-1.836-1.84-1.836zm-21.376 0c.223-3.21 2.417-5.185 5.678-5.19 0 0 .73 0 .73 0 3.266.004 5.644 1.978 5.864 5.187 0 0-12.273 0-12.273 0z"/></svg>
